static/icons/Bughouse960.svg

<svg height="50" viewBox="0 0 13.229166 13.229167" width="50" xmlns="http://www.w3.org/2000/svg"><path d="m6.6145832 284.0354v.74879c1.7520783 1.29345 7.2891098 5.70405 5.1113158 5.70405 0 0-1.132449.11376-1.595768 0v5.49837h-3.5155478v.74879h6.3499998v-12.7zm0 11.95121v-.8754c-1.2278155.0024-2.4687599-.08905-2.6556518-.27595-.3690431-.36903-.3690431-4.85027 0-5.21932.1845225-.18447 1.3966382-.27698 2.6091431-.27698.0155718 0 .0309392.00048.0465087.00051v-4.55528c-1.6593208 1.29345-7.22709175 5.70405-5.1232014 5.70405h1.4639933v5.49837zm0-6.64714v5.77174c1.1966785-.00234 2.3809992-.09379 2.5631511-.27595.3690444-.36903.3690444-4.85027 0-5.21932-.1821518-.18214-1.36639-.27412-2.5631511-.27647zm-1.3311848.56638c-.3639887-.00003-.6589083.29488-.6588745.65887-.0000338.36398.2948858.6589.6588745.65887.3639886.00003.659425-.29489.6593912-.65887.0000338-.36399-.2954026-.6589-.6593912-.65887zm2.598291 0c.3638018.00023.6583915.29506.6583577.65887.0000341.3638-.2945559.65864-.6583577.65887-.3639887.00003-.6594251-.29489-.6593913-.65887-.0000338-.36399.2954026-.6589.6593913-.65887zm-2.6267131 1.67069c-.3641754-.00003-.6596892.29573-.6593912.65991-.0000338.36398.2954026.65891.6593912.65888.3639887.00003.6589083-.2949.6588745-.65888.0002939-.36418-.294699-.65994-.6588745-.65991zm2.5972575 0c.3643622-.0003.6596851.29554.6593913.65991.000034.36417-.2952159.65917-.6593913.65888-.3638018-.00023-.6583918-.29508-.6583578-.65888-.000298-.36399.2943692-.65968.6583578-.65991zm-2.5879557 1.67174c-.3641754-.00003-.6591725.29521-.6588745.65939.0002302.3638.2950727.65891.6588745.65887.3638018.00004.6591611-.29507.6593913-.65887.0002938-.36418-.2952159-.65942-.6593913-.65939zm2.5977742 0c.3641754-.00003.6591683.29521.6588745.65939-.0002302.3638-.2950728.65891-.6588745.65887-.363615-.00023-.6586443-.29526-.6588745-.65887-.000298-.36399.2948859-.65916.6588745-.65939z" fill="#90bfd5" fill-opacity=".992157" opacity=".99" transform="translate(0 -283.77082)"/></svg>

<?xml version="1.0" encoding="UTF-8" standalone="no"?>
<svg
   width="50"
   height="50"
   viewBox="0 0 13.229166 13.229167"
   version="1.1"
   id="svg1579"
   sodipodi:docname="Bughouse960.svg"
   inkscape:version="1.2.2 (b0a8486541, 2022-12-01)"
   xmlns:inkscape="http://www.inkscape.org/namespaces/inkscape"
   xmlns:sodipodi="http://sodipodi.sourceforge.net/DTD/sodipodi-0.dtd"
   xmlns="http://www.w3.org/2000/svg"
   xmlns:svg="http://www.w3.org/2000/svg"
   xmlns:rdf="http://www.w3.org/1999/02/22-rdf-syntax-ns#"
   xmlns:cc="http://creativecommons.org/ns#"
   xmlns:dc="http://purl.org/dc/elements/1.1/">
  <defs
     id="defs1573" />
  <sodipodi:namedview
     id="base"
     pagecolor="#ffffff"
     bordercolor="#666666"
     borderopacity="1.0"
     inkscape:pageopacity="0.0"
     inkscape:pageshadow="2"
     inkscape:zoom="5.6"
     inkscape:cx="121.51786"
     inkscape:cy="-24.553571"
     inkscape:document-units="px"
     inkscape:current-layer="layer1"
     showgrid="false"
     units="px"
     showguides="true"
     inkscape:window-width="3840"
     inkscape:window-height="2036"
     inkscape:window-x="-12"
     inkscape:window-y="-12"
     inkscape:window-maximized="1"
     inkscape:lockguides="true"
     inkscape:document-rotation="0"
     inkscape:showpageshadow="2"
     inkscape:pagecheckerboard="0"
     inkscape:deskcolor="#d1d1d1" />
  <metadata
     id="metadata1576">
    <rdf:RDF>
      <cc:Work
         rdf:about="">
        <dc:format>image/svg+xml</dc:format>
        <dc:type
           rdf:resource="http://purl.org/dc/dcmitype/StillImage" />
      </cc:Work>
    </rdf:RDF>
  </metadata>
  <g
     inkscape:label="Layer 1"
     inkscape:groupmode="layer"
     id="layer1"
     transform="translate(0,-283.77082)"
     style="opacity:0.98999999">
    <path
       id="rect7553"
       style="opacity:1;fill:#90bfd5;fill-opacity:0.992157;stroke:none;stroke-width:0.819781;stroke-linecap:square;stroke-linejoin:miter;stroke-miterlimit:10;stroke-dasharray:none;stroke-opacity:1;paint-order:normal"
       d="M 6.6145832 284.0354 L 6.6145832 284.78419 C 8.3666615 286.07764 13.903693 290.48824 11.725899 290.48824 C 11.725899 290.48824 10.59345 290.602 10.130131 290.48824 L 10.130131 295.98661 L 6.6145832 295.98661 L 6.6145832 296.7354 L 12.964583 296.7354 L 12.964583 284.0354 L 6.6145832 284.0354 z M 6.6145832 295.98661 L 6.6145832 295.11121 C 5.3867677 295.11361 4.1458233 295.02216 3.9589314 294.83526 C 3.5898883 294.46623 3.5898883 289.98499 3.9589314 289.61594 C 4.1434539 289.43147 5.3555696 289.33896 6.5680745 289.33896 C 6.5836463 289.33896 6.5990137 289.33944 6.6145832 289.33947 L 6.6145832 284.78419 C 4.9552624 286.07764 -0.61250855 290.48824 1.4913818 290.48824 L 2.9553751 290.48824 L 2.9553751 295.98661 L 6.6145832 295.98661 z M 6.6145832 289.33947 L 6.6145832 295.11121 C 7.8112617 295.10887 8.9955824 295.01742 9.1777343 294.83526 C 9.5467787 294.46623 9.5467787 289.98499 9.1777343 289.61594 C 8.9955825 289.4338 7.8113443 289.34182 6.6145832 289.33947 z M 5.2833984 289.90585 C 4.9194097 289.90582 4.6244901 290.20073 4.6245239 290.56472 C 4.6244901 290.9287 4.9194097 291.22362 5.2833984 291.22359 C 5.647387 291.22362 5.9428234 290.9287 5.9427896 290.56472 C 5.9428234 290.20073 5.647387 289.90582 5.2833984 289.90585 z M 7.8816894 289.90585 C 8.2454912 289.90608 8.5400809 290.20091 8.5400471 290.56472 C 8.5400812 290.92852 8.2454912 291.22336 7.8816894 291.22359 C 7.5177007 291.22362 7.2222643 290.9287 7.2222981 290.56472 C 7.2222643 290.20073 7.5177007 289.90582 7.8816894 289.90585 z M 5.2549763 291.57654 C 4.8908009 291.57651 4.5952871 291.87227 4.5955851 292.23645 C 4.5955513 292.60043 4.8909877 292.89536 5.2549763 292.89533 C 5.618965 292.89536 5.9138846 292.60043 5.9138508 292.23645 C 5.9141447 291.87227 5.6191518 291.57651 5.2549763 291.57654 z M 7.8522338 291.57654 C 8.216596 291.57624 8.5119189 291.87208 8.5116251 292.23645 C 8.5116591 292.60062 8.2164092 292.89562 7.8522338 292.89533 C 7.488432 292.8951 7.193842 292.60025 7.193876 292.23645 C 7.193578 291.87246 7.4882452 291.57677 7.8522338 291.57654 z M 5.2642781 293.24828 C 4.9001027 293.24825 4.6051056 293.54349 4.6054036 293.90767 C 4.6056338 294.27147 4.9004763 294.56658 5.2642781 294.56654 C 5.6280799 294.56658 5.9234392 294.27147 5.9236694 293.90767 C 5.9239632 293.54349 5.6284535 293.24825 5.2642781 293.24828 z M 7.8620523 293.24828 C 8.2262277 293.24825 8.5212206 293.54349 8.5209268 293.90767 C 8.5206966 294.27147 8.225854 294.56658 7.8620523 294.56654 C 7.4984373 294.56631 7.203408 294.27128 7.2031778 293.90767 C 7.2028798 293.54368 7.4980637 293.24851 7.8620523 293.24828 z " />
  </g>
</svg>
